; HEADER_BLOCK_START
; generated by OrcaSlicer 2.1.1 on 2024-07-30 at 22:11:24
; total layer number: 126
; filament_density: 1.04
; filament_diameter: 1.75
; max_z_height: 25.20
; HEADER_BLOCK_END

; external perimeters extrusion width = 0.45mm
; perimeters extrusion width = 0.45mm
; infill extrusion width = 0.45mm
; solid infill extrusion width = 0.45mm
; top infill extrusion width = 0.40mm
; support material extrusion width = 0.38mm
; first layer extrusion width = 0.42mm

; EXECUTABLE_BLOCK_START
M73 P0 R89
M201 X500 Y500 Z100 E5000
M203 X500 Y500 Z10 E60
M204 P500 R1000 T500
M205 X8.00 Y8.00 Z0.40 E5.00 ; sets the jerk limits, mm/sec
;TYPE:Custom
G90 ; use absolute coordinates
M83 ; extruder relative mode
M140 S105 ; set final bed temp
M104 S150 ; set temporary nozzle temp to prevent oozing during homing
G4 S10 ; allow partial nozzle warmup
G28 ; home all axis
G1 Z50 F240
G1 X2 Y10 F3000
M104 S260 ; set final nozzle temp
M190 S105 ; wait for bed temp to stabilize
M109 S260 ; wait for nozzle temp to stabilize
M73 P0 R88
G1 Z0.28 F240
G92 E0
G1 Y140 E10 F1500 ; prime the nozzle
G1 X2.3 F5000
G92 E0
G1 Y10 E10 F1200 ; prime the nozzle
G92 E0
G90
G21
M83 ; use relative distances for extrusion
; Filament gcode
M106 S0
;LAYER_CHANGE
;Z:0.2
;HEIGHT:0.2
;BEFORE_LAYER_CHANGE
;0.2
G92 E0

G1 E-4 F3600
;_SET_FAN_SPEED_CHANGING_LAYER
G1 Z.4 F9000
G1 X73.362 Y99.774
G1 Z.4
G1 Z.2
G1 E4 F2400
;TYPE:Skirt
;WIDTH:0.42
G1 F3000
G1 X74.323 Y99.074 E.03451
G1 X75.719 Y98.496 E.04389
G1 X76.7 Y98.309 E.029
G1 X79.853 Y97.995 E.09197
G1 X88.605 Y97.386 E.25475
G1 X138.574 Y97.592 E1.45079
G1 X140.383 Y97.807 E.0529
G1 X143.044 Y98.576 E.08042
G1 X143.805 Y98.886 E.02386
G1 X144.586 Y99.344 E.02629
G1 X145.576 Y100.227 E.03851
G1 X146.225 Y101.092 E.03141
G1 X146.649 Y101.964 E.02814
G1 X146.97 Y103.029 E.03229
G1 X147.071 Y103.781 E.02204
G1 X147.022 Y116.209 E.36083
G1 X146.881 Y117.461 E.03659
G1 X146.651 Y118.261 E.02418
G1 X146.266 Y119.096 E.02668
G1 X145.805 Y119.793 E.02426
G1 X145.187 Y120.475 E.02674
G1 X144.534 Y121.004 E.0244
G1 X143.735 Y121.47 E.02684
G1 X142.947 Y121.779 E.02457
G1 X141.546 Y122.045 E.04141
G1 X134.057 Y122.323 E.21759
G1 X86.706 Y122.451 E1.37479
G1 X83.173 Y122.338 E.10263
G1 X76.766 Y121.911 E.18645
G1 X75.619 Y121.697 E.03385
G1 X74.9 Y121.436 E.02223
G1 X73.808 Y120.796 E.03674
G1 X72.976 Y120.053 E.03238
G1 X72.156 Y118.942 E.04011
G1 X71.502 Y117.573 E.04404
G1 X71.233 Y116.346 E.03646
G1 X71.409 Y103.899 E.36144
G1 X71.562 Y102.762 E.03331
G1 X71.797 Y102.01 E.02286
G1 X72.183 Y101.203 E.02598
G1 X72.679 Y100.487 E.02529
G1 X73.334 Y99.803 E.0275
G1 X73.607 Y100.064 F9000
G1 F3000
G1 X73.634 Y100.035 E.00116
G1 X74.522 Y99.394 E.0318
G1 X75.796 Y98.865 E.04002
G1 X76.738 Y98.684 E.02786
G1 X79.89 Y98.37 E.09197
G1 X88.604 Y97.763 E.25362
G1 X138.572 Y97.969 E1.45079
G1 X140.279 Y98.169 E.0499
G1 X142.939 Y98.938 E.08039
G1 X143.651 Y99.231 E.02236
G1 X144.386 Y99.663 E.02476
G1 X145.311 Y100.496 E.03614
G1 X145.912 Y101.303 E.0292
G1 X146.301 Y102.111 E.02606
G1 X146.607 Y103.13 E.03089
G1 X146.694 Y103.78 E.01902
G1 X146.644 Y116.207 E.36083
G1 X146.507 Y117.413 E.03523
G1 X146.308 Y118.104 E.02087
G1 X145.924 Y118.938 E.02668
G1 X145.526 Y119.539 E.02094
G1 X144.907 Y120.222 E.02674
G1 X144.344 Y120.678 E.02106
G1 X143.545 Y121.144 E.02684
G1 X142.865 Y121.411 E.02121
G1 X141.532 Y121.668 E.03943
G1 X134.054 Y121.946 E.21725
G1 X86.706 Y122.074 E1.37473
G1 X83.198 Y121.961 E.10188
G1 X76.791 Y121.535 E.18645
G1 X75.697 Y121.328 E.0323
G1 X75.076 Y121.103 E.01919
G1 X74.047 Y120.505 E.03456
G1 X73.265 Y119.811 E.03036
G1 X72.496 Y118.779 E.03735
G1 X71.842 Y117.41 E.04404
G1 X71.61 Y116.352 E.03147
G1 X71.786 Y103.904 E.36144
G1 X71.935 Y102.821 E.03172
G1 X72.137 Y102.173 E.01973
G1 X72.524 Y101.366 E.02598
G1 X72.951 Y100.747 E.02183
G1 X73.579 Y100.092 E.02634
; printing object 120_Takeup_Spool_for_35mm_Film_C.stl id:2620920351656 copy 0
G1 E-2.8 F3600
;WIPE_START
G1 F3000
G1 X73.634 Y100.035 E-.096
G1 X74.38 Y99.496 E-1.104
;WIPE_END
G1 Z.6 F9000
G1 X80.034 Y111.344 Z.6
G1 Z.2
G1 E4 F2400
;TYPE:Support interface
;WIDTH:0.38
G1 F900
G1 X79.549 Y111.344 E.01259
G1 X79.549 Y110.69 E.01697
G1 X80.202 Y111.344 E.024
G1 X80.962 Y111.344 E.01971
G1 X79.549 Y109.93 E.05187
G1 X79.549 Y109.171 E.01971
G1 X81.721 Y111.344 E.07975
G1 X82.481 Y111.344 E.01971
G1 X79.794 Y108.656 E.09863
G1 X80.553 Y108.656 E.01971
G1 X83.24 Y111.344 E.09863
G1 X84 Y111.344 E.01971
G1 X81.313 Y108.656 E.09863
G1 X82.072 Y108.656 E.01971
G1 X84.76 Y111.344 E.09863
G1 X85.519 Y111.344 E.01971
G1 X82.832 Y108.656 E.09863
G1 X83.591 Y108.656 E.01971
G1 X86.279 Y111.344 E.09863
G1 X87.038 Y111.344 E.01971
G1 X84.351 Y108.656 E.09863
G1 X85.111 Y108.656 E.01971
G1 X87.798 Y111.344 E.09863
G1 X88.557 Y111.344 E.01971
G1 X85.87 Y108.656 E.09863
G1 X86.63 Y108.656 E.01971
G1 X89.317 Y111.344 E.09863
G1 X90.076 Y111.344 E.01971
G1 X87.389 Y108.656 E.09863
G1 X88.149 Y108.656 E.01971
G1 X90.836 Y111.344 E.09863
G1 X91.1 Y111.344 E.00685
G1 X91.146 Y110.894 E.01173
G1 X88.908 Y108.656 E.08212
G1 X89.668 Y108.656 E.01971
G1 X91.179 Y110.168 E.05548
G1 X91.165 Y109.394 E.0201
G1 X90.427 Y108.656 E.02706
G1 X91.1 Y108.656 E.01746
G1 X91.154 Y109.226 E.01484
G1 E-2.8 F3600
;WIPE_START
G1 F900
G1 X91.1 Y108.656 E-.68607
G1 X90.672 Y108.656 E-.51393
;WIPE_END
G1 Z.6 F9000
G1 X89.085 Y100.144 Z.6
G1 Z.2
G1 E4 F2400
;TYPE:Support
;WIDTH:0.42
G1 F900
G1 X89.527 Y100.171 E.01285
G1 X90.398 Y100.412 E.02624
G1 X91.188 Y100.851 E.02624
G1 X91.524 Y101.153 E.01312
G1 X91.862 Y101.162 E.00982
G1 X92.738 Y101.401 E.02637
G1 X93.533 Y101.839 E.02636
G1 X94.196 Y102.445 E.02609
G1 X94.493 Y102.876 E.0152
G1 X95.54 Y102.536 E.03196
G1 X96.493 Y102.407 E.02792
G1 X97.453 Y102.451 E.02792
G1 X98.391 Y102.665 E.02792
M73 P1 R88
G1 X99.275 Y103.043 E.02792
G1 X99.724 Y103.339 E.01563
G1 X100.261 Y103.051 E.01769
G1 X101.176 Y102.754 E.02792
G1 X102.129 Y102.625 E.02792
G1 X103.089 Y102.668 E.02792
G1 X104.027 Y102.882 E.02792
G1 X104.244 Y102.974 E.00684
G1 X104.637 Y102.763 E.01296
G1 X105.551 Y102.466 E.02792
G1 X106.504 Y102.337 E.02792
G1 X107.465 Y102.38 E.02792
G1 X108.402 Y102.594 E.02792
G1 X109.286 Y102.972 E.02792
G1 X109.46 Y103.087 E.00603
G1 X110.234 Y102.835 E.02364
G1 X111.187 Y102.706 E.02792
G1 X112.148 Y102.75 E.02792
G1 X113.085 Y102.964 E.02792
G1 X113.77 Y103.257 E.02162
G1 X114.442 Y102.896 E.02214
G1 X115.356 Y102.599 E.02792
G1 X116.309 Y102.47 E.02792
G1 X117.27 Y102.513 E.02792
G1 X118.207 Y102.727 E.02792
G1 X119.092 Y103.105 E.02792
G1 X119.215 Y103.187 E.00428
G1 X119.622 Y102.967 E.01343
G1 X120.537 Y102.67 E.02793
G1 X121.49 Y102.541 E.02793
G1 X122.451 Y102.584 E.02793
G1 X122.595 Y102.617 E.00429
G1 X122.977 Y102.548 E.01128
G1 X123.327 Y102.437 E.01066
G1 X124.285 Y102.316 E.02803
G1 X125.247 Y102.368 E.02798
G1 X125.825 Y102.506 E.01723
G1 X125.958 Y102.33 E.0064
G1 X126.635 Y101.774 E.02544
G1 X127.078 Y101.541 E.01452
G1 X127.516 Y101.352 E.01386
G1 X128.37 Y101.17 E.02533
G1 X129.11 Y101.191 E.0215
G1 X129.276 Y101.065 E.00607
G1 X129.6 Y100.891 E.01066
G1 X130.145 Y100.651 E.01728
G1 X131.021 Y100.475 E.02596
G1 X131.934 Y100.513 E.02652
G1 X132.809 Y100.766 E.02643
G1 X132.992 Y100.87 E.00612
G1 X133.569 Y100.625 E.01822
G1 X134.144 Y100.474 E.01725
G1 X134.674 Y100.454 E.0154
G1 X134.841 Y100.479 E.00491
G1 X135.24 Y100.451 E.01161
G1 X135.703 Y100.526 E.01364
G1 X136.478 Y100.81 E.02397
G1 X136.741 Y100.966 E.00887
G1 X137.094 Y100.676 E.01326
G1 X137.505 Y100.735 E.01207
G1 X138.562 Y100.347 E.03269
G1 X139.624 Y100.454 E.03099
G1 X140.241 Y100.631 E.01864
G1 X140.722 Y100.861 E.01547
G1 X141.03 Y101.055 E.01057
G1 X141.691 Y101.077 E.0192
G1 X142.278 Y101.221 E.01753
G1 X142.683 Y101.402 E.01289
G1 X143.123 Y101.678 E.01507
G1 X143.645 Y102.19 E.02123
G1 X143.939 Y102.629 E.01533
G1 X144.113 Y103.039 E.01292
G1 X144.317 Y103.77 E.02205
G1 X144.257 Y104.32 E.01606
G1 X144.259 Y104.843 E.01517
G1 X143.984 Y105.545 E.02189
G1 X143.859 Y105.73 E.00649
G1 X143.723 Y106.366 E.01889
G1 X143.594 Y106.758 E.01197
G1 X142.894 Y107.861 E.03793
G1 X141.018 Y107.861 E.05448
G1 X140.69 Y108.189 E.01347
G1 X140.69 Y108.278 E.00258
G1 X128.563 Y108.277 E.3521
G1 X128.473 Y109.123 E.02471
G1 X128.44 Y109.974 E.02471
G1 X128.47 Y110.839 E.02514
G1 X128.563 Y111.722 E.02576
G1 X140.69 Y111.722 E.3521
G1 X140.69 Y111.811 E.00258
G1 X141.018 Y112.139 E.01347
G1 X142.505 Y112.139 E.04317
G1 X143.255 Y112.933 E.03171
G1 X143.488 Y113.788 E.02573
G1 X143.663 Y114.083 E.00996
G1 X143.697 Y114.503 E.01224
G1 X144.108 Y115.293 E.02584
G1 X144.267 Y116.198 E.02668
G1 X144.15 Y117.108 E.02666
G1 X143.765 Y117.943 E.02668
G1 X143.146 Y118.625 E.02674
G1 X142.348 Y119.091 E.02684
G1 X141.441 Y119.293 E.02699
G1 X140.509 Y119.208 E.02716
G1 X139.858 Y118.929 E.02057
G1 X139.424 Y118.944 E.01258
G1 X138.556 Y118.731 E.02596
G1 X138.483 Y118.69 E.00244
G1 X137.61 Y118.926 E.02624
G1 X136.703 Y118.95 E.02636
G1 X136.527 Y118.913 E.00523
G1 X135.82 Y119.303 E.02344
G1 X134.944 Y119.542 E.02636
G1 X134.036 Y119.569 E.02638
G1 X133.147 Y119.38 E.0264
G1 X133.025 Y119.321 E.00392
G1 X132.263 Y119.53 E.02293
G1 X131.355 Y119.557 E.02638
G1 X130.465 Y119.37 E.02641
G1 X130.262 Y119.272 E.00653
G1 X130.125 Y119.351 E.00457
G1 X129.23 Y119.59 E.0269
G1 X128.324 Y119.612 E.02633
G1 X127.438 Y119.42 E.02632
G1 X126.662 Y119.045 E.02503
G1 X126.303 Y118.778 E.01297
G1 X125.904 Y118.426 E.01548
G1 X125.379 Y117.729 E.02533
G1 X125.219 Y117.36 E.01167
G1 X125.004 Y117.452 E.00679
G1 X124.066 Y117.666 E.02792
G1 X123.106 Y117.71 E.02792
G1 X122.152 Y117.581 E.02792
G1 X121.238 Y117.284 E.02793
G1 X120.391 Y116.829 E.02793
G1 X119.95 Y116.478 E.01635
G1 X119.41 Y116.708 E.01704
G1 X118.473 Y116.922 E.02792
G1 X117.512 Y116.965 E.02792
G1 X116.559 Y116.836 E.02792
G1 X115.777 Y116.582 E.0239
G1 X115.159 Y116.99 E.02149
G1 X114.275 Y117.368 E.02792
G1 X113.337 Y117.582 E.02792
G1 X112.377 Y117.625 E.02792
G1 X111.424 Y117.496 E.02792
G1 X110.509 Y117.199 E.02792
G1 X109.662 Y116.744 E.02793
G1 X109.571 Y116.671 E.00338
G1 X108.948 Y116.938 E.01966
G1 X108.011 Y117.152 E.02792
G1 X107.05 Y117.195 E.02792
G1 X106.097 Y117.066 E.02792
G1 X105.182 Y116.769 E.02792
G1 X104.937 Y116.637 E.00809
G1 X104.441 Y116.964 E.01724
G1 X103.557 Y117.342 E.02792
G1 X102.62 Y117.557 E.02792
G1 X101.659 Y117.6 E.02792
G1 X100.706 Y117.471 E.02792
G1 X99.791 Y117.174 E.02792
G1 X98.942 Y116.717 E.028
G1 X98.34 Y117.115 E.02095
G1 X97.456 Y117.493 E.02792
G1 X96.518 Y117.707 E.02793
G1 X95.557 Y117.751 E.02793
G1 X94.604 Y117.622 E.02793
G1 X93.895 Y117.392 E.02162
G1 X93.414 Y118.141 E.02585
G1 X92.738 Y118.784 E.02711
G1 X91.968 Y119.23 E.02582
G1 X91.094 Y119.488 E.02647
G1 X90.193 Y119.53 E.02617
G1 X89.561 Y119.416 E.01866
G1 X89.232 Y119.332 E.00985
G1 X88.928 Y119.19 E.00974
G1 X88.484 Y119.434 E.01472
G1 X87.608 Y119.672 E.02634
G1 X86.701 Y119.696 E.02634
G1 X85.85 Y119.515 E.02527
G1 X85.273 Y119.252 E.01839
G1 X85.139 Y119.326 E.00446
G1 X84.263 Y119.564 E.02634
G1 X83.356 Y119.59 E.02634
G1 X82.469 Y119.401 E.02635
G1 X81.65 Y119.008 E.02636
G1 X81.389 Y118.795 E.00979
G1 X80.824 Y118.976 E.01723
G1 X80.338 Y119.008 E.01414
G1 X79.859 Y119.006 E.01392
G1 X79.015 Y118.791 E.02527
G1 X78.867 Y118.705 E.00497
G1 X78.284 Y119.006 E.01905
G1 X77.631 Y119.15 E.01943
G1 X76.949 Y119.163 E.01981
G1 X76.188 Y119.002 E.02257
G1 X75.554 Y118.667 E.02082
G1 X75.084 Y118.281 E.01766
G1 X74.641 Y117.754 E.02
G1 X73.987 Y116.385 E.04404
G1 X74.231 Y115.949 E.01452
G1 X74.174 Y115.377 E.01668
G1 X74.644 Y114.424 E.03084
G1 X75.011 Y113.98 E.01675
G1 X75.019 Y113.557 E.01228
G1 X75.463 Y112.618 E.03014
G1 X76.336 Y111.953 E.03186
G1 X76.76 Y111.882 E.01251
G1 X77.018 Y112.139 E.01058
G1 X78.982 Y112.139 E.05702
G1 X79.31 Y111.811 E.01347
G1 X79.31 Y111.722 E.00258
G1 X91.437 Y111.722 E.3521
G1 X91.504 Y111.151 E.01669
G1 X91.546 Y110.574 E.0168
G1 X91.56 Y110 E.01667
G1 X91.546 Y109.426 E.01667
G1 X91.504 Y108.849 E.0168
G1 X91.437 Y108.278 E.01669
G1 X79.31 Y108.278 E.3521
G1 X79.31 Y108.189 E.00258
G1 X78.982 Y107.861 E.01347
G1 X77.018 Y107.861 E.05702
G1 X76.855 Y108.023 E.00668
G1 X76.72 Y108.013 E.00396
G1 X75.938 Y107.726 E.02416
G1 X75.349 Y107.145 E.02403
G1 X74.917 Y106.432 E.02421
G1 X74.899 Y106.128 E.00885
G1 X74.6 Y105.713 E.01484
G1 X74.256 Y105.008 E.02277
G1 X74.215 Y104.389 E.01802
G1 X74.233 Y104.213 E.00513
G1 X74.163 Y103.937 E.00825
G1 X74.281 Y103.199 E.02172
G1 X74.668 Y102.392 E.02598
G1 X75.351 Y101.679 E.02866
G1 X75.781 Y101.41 E.01474
G1 X76.276 Y101.193 E.01568
G1 X76.973 Y101.049 E.02067
G1 X77.664 Y101.07 E.02006
G1 X78.278 Y101.221 E.01836
G1 X78.425 Y101.287 E.00468
G1 X78.811 Y101.081 E.01272
G1 X79.267 Y100.887 E.01437
G1 X80.125 Y100.736 E.0253
G1 X81.004 Y100.819 E.02562
G1 X81.832 Y101.132 E.0257
G1 X82.458 Y100.86 E.01982
G1 X82.993 Y100.718 E.01607
G1 X83.563 Y100.647 E.01666
G1 X84.258 Y100.677 E.02021
G1 X85.187 Y100.906 E.02777
G1 X85.739 Y100.65 E.01766
M73 P1 R87
G1 X86.635 Y100.474 E.02653
G1 X87.335 Y100.506 E.02034
G1 X87.732 Y100.319 E.01273
G1 X88.594 Y100.14 E.02557
G1 X89.029 Y100.143 E.01262
G1 E-2.8 F3600
;WIPE_START
G1 F900
G1 X88.594 Y100.14 E-.52152
G1 X88.04 Y100.255 E-.67848
;WIPE_END
G1 Z.6 F9000
G1 X143.937 Y105.2 Z.6
G1 Z.2
G1 E4 F2400
G1 F900
G1 X143.937 Y103.671 E.04438
G1 X143.792 Y103.151 E.01568
G1 X143.639 Y102.791 E.01135
G1 X143.518 Y102.611 E.00631
G1 X143.518 Y105.7 E.08971
G1 X143.394 Y106.277 E.01713
G1 X143.285 Y106.612 E.01022
G1 X143.099 Y106.905 E.01007
G1 X143.099 Y102.13 E.13863
G1 X142.912 Y101.945 E.00764
G1 X142.68 Y101.8 E.00793
G1 X142.68 Y107.521 E.16611
G1 X142.261 Y107.521 E.01216
G1 X142.261 Y101.585 E.17235
G1 X142.167 Y101.543 E.00299
G1 X141.842 Y101.463 E.00971
G1 X141.842 Y107.521 E.1759
G1 X141.423 Y107.521 E.01216
G1 X141.423 Y101.4 E.17773
G1 X141.004 Y101.394 E.01217
G1 X141.004 Y107.521 E.1779
G1 X140.877 Y107.521 E.00368
G1 X140.585 Y107.814 E.012
G1 X140.585 Y101.176 E.19271
G1 X140.166 Y100.972 E.01354
G1 X140.166 Y107.938 E.20227
G1 X139.747 Y107.938 E.01216
G1 X139.747 Y100.843 E.20602
G1 X139.56 Y100.789 E.00566
G1 X139.328 Y100.765 E.00675
G1 X139.328 Y107.938 E.20826
G1 X138.909 Y107.938 E.01216
G1 X138.909 Y100.723 E.20949
G1 X138.604 Y100.692 E.00893
G1 X138.49 Y100.732 E.00348
G1 X138.49 Y107.938 E.20923
G1 X138.071 Y107.938 E.01216
G1 X138.071 Y100.88 E.20494
G1 X137.811 Y100.972 E.00803
G1 X137.652 Y101.041 E.00501
G1 X137.652 Y107.938 E.20027
G1 X137.234 Y107.938 E.01216
G1 X137.234 Y101.039 E.20033
G1 X137.194 Y101.033 E.00116
G1 X136.815 Y101.346 E.01427
G1 X136.815 Y107.938 E.19141
G1 X136.396 Y107.938 E.01216
G1 X136.396 Y101.156 E.19692
G1 X135.977 Y100.988 E.01311
G1 X135.977 Y107.938 E.2018
G1 X135.558 Y107.938 E.01216
G1 X135.558 Y100.846 E.2059
G1 X135.224 Y100.793 E.00981
G1 X135.139 Y100.799 E.00249
G1 X135.139 Y107.938 E.20729
G1 X134.72 Y107.938 E.01216
G1 X134.72 Y100.804 E.20714
G1 X134.301 Y100.808 E.01217
G1 X134.301 Y107.938 E.20702
G1 X133.882 Y107.938 E.01216
G1 X133.882 Y100.894 E.20453
G1 X133.679 Y100.947 E.00609
G1 X133.463 Y101.039 E.00682
G1 X133.463 Y107.938 E.20032
G1 X133.044 Y107.938 E.01216
G1 X133.044 Y101.217 E.19515
G1 X132.969 Y101.248 E.00234
G1 X132.625 Y101.066 E.01133
G1 X132.625 Y107.938 E.19953
G1 X132.206 Y107.938 E.01216
G1 X132.206 Y100.945 E.20304
G1 X131.879 Y100.85 E.00988
G1 X131.787 Y100.847 E.00268
G1 X131.787 Y107.938 E.20589
G1 X131.368 Y107.938 E.01216
G1 X131.368 Y100.829 E.2064
G1 X131.048 Y100.816 E.0093
G1 X130.949 Y100.836 E.00293
G1 X130.949 Y107.938 E.20621
G1 X130.53 Y107.938 E.01216
G1 X130.53 Y100.92 E.20377
G1 X130.248 Y100.977 E.00836
G1 X130.111 Y101.037 E.00434
G1 X130.111 Y107.938 E.20037
G1 X129.692 Y107.938 E.01216
G1 X129.692 Y101.226 E.19486
G1 X129.46 Y101.351 E.00764
G1 X129.273 Y101.493 E.00683
G1 X129.273 Y107.938 E.18712
G1 X128.854 Y107.938 E.01216
G1 X128.854 Y101.523 E.18624
G1 X128.435 Y101.512 E.01217
G1 X128.435 Y107.938 E.18658
G1 X128.261 Y107.938 E.00505
